**kern	**kern	**dynam
*part1	*part1	*part1
*staff2	*staff1	*
*I"Piano	*	*
*clefF4	*clefG2	*
*k[f#c#g#d#]	*k[f#c#g#d#]	*
=1	=1	=1
16GG#LL	4b 4bb	.
16r	.	.
16E	.	.
16r	.	.
.	8qbb/	.
16AA 16C#	8.aL 8.aa	.
16r	.	.
16EJJ	.	.
16r	16g#Jk 16gg#	.
=	=	=
16BBLL	4g# 4gg#	.
16r	.	.
16B	.	.
16r	.	.
.	8qgg#/	.
16BB 16D# 16A	8.f#L 8.ff#	.
16r	.	.
16BJJ	.	.
16r	16eJk 16ee	.
=	=	=
4E 4G#	4e 4ee	.
4r	4r	.
=	=	=
8E 8G#	8B 8e	f
8r	8r	.
8A	8c#	.
8r	8r	.
=	=	=
8E 8G#	4B 4e	.
8r	.	.
8B	4r	.
8r	.	.
=	=	=
8BB	8B 8f# 8a	.
8r	8r	.
8BB	8B 8f# 8a	.
8r	8r	.
=	=	=
8E	4B 4e 4g#	.
8r	.	.
8EE	4r	.
8r	.	.
=	=	=
*-	*-	*-
!!!system-decoration: {(s1,s2)}
